X:255
T:Saint Louis Blues
Z:Jack Campin, http://www.campin.me.uk/
F:Jack Campin's Nine-Note Tunebook
% last edit 03-02-2013
C:W.C.Handy
M:2/4
L:1/16
Q:1/4=72
K:G
  z2|{^A}BdBG- G4 |z ^DEG _B A3|G8-  |G6 \
  z2|    zEGA- A4 |z  EGA _B A3|G8-  |G6
  z2|    FAFD  D4 |z2 _BB  B A3|G8-  |G6 \
  z2|{^A}BdBG- GG3|z ^DEG _B A3|G8-  |G6
  z2|    zEGA- AA3|z ^DEG _B A3|G8-  |G6 \
  z2|    FAFD- DD3|z2 _BB  B A3|G8-  |G4||
%
zddd|    dd3-  d4 |z  c2^c d_B3|A8-  |A4- A  \
 c2c|    cc3-  c4 |z2 c^c  d A3|G8-  |G4  z2
  dd|    dd3-  d4 |z  c2^c d_B3|A8-  |A4  z2 \
  c2|    cc2c- c4 |z2 c^c  d A3|G4 A4|d6||
%
(^AB)| G2(^AB) G2(AB) |G2(^AB) (GA)B  G-|G8-|G4 z2
(^AB)|=A2  GE  G2(A_B)|A2(GE)   G(^AB)G-|G8-|G4 z2
(^AB)| d2(^AB) D(AB)C-|C(^AB)D- D (AB)G-|G8 |z4 z2|]

